X:1
T:Cahokia Mounds, 11.11.11.11
T:Cahokia Mounds, 11.11.11.11
T:James Henry Fillmore, Sr., 1876
T:Public Domain Courtesy of the Cyber Hymnal™
C:James Henry Fillmore, Sr., 1876
Z:Public Domain
Z:Courtesy of the Cyber Hymnal™
%%score ( 1 2 ) ( 3 4 )
L:1/8
Q:1/4=100
M:4/4
K:Ab
V:1 treble 
V:2 treble 
V:3 bass 
V:4 bass 
V:1
 [CE][CE][CE][CE] [CE][CE][CA][Ec] | [Ec]2 [EB]2 [EB]4 | EEEE EE[EB][Ed] | [Ed]2 [Ec]2 [Ec]4 | %4
 [CE][CE][CE][CE] [CE][CA][Ec][_Ge] | [_Ge]2 [Fd]2 [DF]4 | [DF][CE][CE][CA] [CA][B,G][B,G][DB] | %7
 [DB]2 [CA]2 [CA]4 |] %8
V:2
 x8 | x8 | EEEE EE x2 | x8 | x8 | x8 | x8 | x8 |] %8
V:3
 [A,,A,][A,,A,][A,,A,][A,,A,] [A,,A,][A,,A,][A,,A,][A,,A,] | [E,A,]2 [E,G,]2 [E,G,]4 | %2
 [E,G,][E,G,][E,G,][E,G,] [E,G,][E,G,][E,G,][E,B,] | [A,B,]2 A,2 A,4 | A,A,A,A, A,A,A,A, | %5
 [D,A,]2 [D,A,]2 [D,A,]4 | [E,A,][E,A,][E,A,][E,A,] E,E,E,E, | [A,,E,]2 [A,,E,]2 [A,,E,]4 |] %8
V:4
 x8 | x8 | x8 | x2 A,2 A,4 | A,A,A,A, A,A,A,A, | x8 | x4 E,E,E,E, | x8 |] %8

